ibt/assets/img/icons/adv-1-ico.svg

<svg width="70" height="70" viewBox="0 0 70 70" fill="none" xmlns="http://www.w3.org/2000/svg">
<path d="M10.1839 51.8967C6.67504 51.8967 3.82031 54.6038 3.82031 57.9312C3.82031 61.2586 6.67504 63.9657 10.1839 63.9657C13.6929 63.9657 16.5476 61.2586 16.5476 57.9312C16.5476 54.6038 13.6929 51.8967 10.1839 51.8967ZM10.1839 61.5519C8.07886 61.5519 6.36577 59.9274 6.36577 57.9312C6.36577 55.935 8.07886 54.3105 10.1839 54.3105C12.289 54.3105 14.0021 55.935 14.0021 57.9312C14.0021 59.9274 12.289 61.5519 10.1839 61.5519Z" fill="white"/>
<path d="M70 42.2414C70 39.2302 68.25 37.8217 66.5445 37.1326C67.8809 36.0259 68.7273 34.3978 68.7273 32.5862C68.7273 29.2588 65.8725 26.5517 62.3636 26.5517H44.0796L45.0075 22.4362C46.2458 16.946 45.4325 10.71 45.1551 8.92983C44.4958 4.71414 40.5644 0 36.2893 0H35.9851C33.9538 0 30.5455 1.09707 30.5455 8.44828C30.5455 18.1312 27.9975 22.5617 25.8605 24.5724C23.7644 26.5445 21.7484 26.5228 21.6364 26.5517H20.3636V24.1379H0V70H20.3636V67.5862H56C59.5089 67.5862 62.3636 64.8791 62.3636 61.5517C62.3636 60.1469 61.8545 58.8531 61.0031 57.826C63.9482 57.2986 66.1818 54.8402 66.1818 51.8966C66.1818 50.4917 65.6727 49.1979 64.8213 48.1709C67.7664 47.6434 70 45.185 70 42.2414ZM2.54545 67.5862V26.5517H17.8182V67.5862H2.54545ZM63.6364 45.8621H59.8182H49.6364C48.9338 45.8621 48.3636 46.4016 48.3636 47.069C48.3636 47.7364 48.9338 48.2759 49.6364 48.2759H59.8182C61.9233 48.2759 63.6364 49.9003 63.6364 51.8966C63.6364 53.8928 61.9233 55.5172 59.8182 55.5172H57.2727H56H47.0909C46.3884 55.5172 45.8182 56.0567 45.8182 56.7241C45.8182 57.3916 46.3884 57.931 47.0909 57.931H56C58.1051 57.931 59.8182 59.5555 59.8182 61.5517C59.8182 63.5479 58.1051 65.1724 56 65.1724H20.3636V28.9655L21.5969 28.9643C21.7204 28.9872 24.6769 29.0247 27.5558 26.3767C31.2289 23.0022 33.0909 16.9702 33.0909 8.44828C33.0909 6.195 33.4664 2.41379 35.9851 2.41379H36.2893C39.1287 2.41379 42.154 6.19138 42.6364 9.28224C42.8998 10.9622 43.6673 16.8374 42.518 21.9305L40.9335 28.9655H62.3636C64.4687 28.9655 66.1818 30.59 66.1818 32.5862C66.1818 34.5824 64.4687 36.2069 62.3636 36.2069H59.8182H58.5455H49.6364C48.9338 36.2069 48.3636 36.7464 48.3636 37.4138C48.3636 38.0812 48.9338 38.6207 49.6364 38.6207H58.5455C59.6693 38.6207 62.1409 38.669 63.4505 38.8536C66.7736 39.3207 67.4545 40.5457 67.4545 42.2414C67.4545 44.2376 65.7415 45.8621 63.6364 45.8621Z" fill="white"/>
</svg>

<svg width="70" height="70" fill="none" xmlns="http://www.w3.org/2000/svg"><path d="M10.184 51.897c-3.509 0-6.364 2.707-6.364 6.034 0 3.328 2.855 6.035 6.364 6.035s6.364-2.707 6.364-6.035c0-3.327-2.855-6.034-6.364-6.034zm0 9.655c-2.105 0-3.818-1.625-3.818-3.62 0-1.997 1.713-3.622 3.818-3.622s3.818 1.625 3.818 3.621-1.713 3.62-3.818 3.62z" fill="#fff"/><path d="M70 42.241c0-3.01-1.75-4.42-3.456-5.108 1.337-1.107 2.183-2.735 2.183-4.547 0-3.327-2.855-6.034-6.363-6.034H44.08l.928-4.116c1.238-5.49.424-11.726.147-13.506C44.495 4.714 40.565 0 36.29 0h-.304c-2.031 0-5.44 1.097-5.44 8.448 0 9.683-2.548 14.114-4.685 16.124-2.096 1.973-4.112 1.95-4.224 1.98h-1.272v-2.414H0V70h20.364v-2.414H56c3.509 0 6.364-2.707 6.364-6.034 0-1.405-.51-2.699-1.36-3.726 2.944-.527 5.178-2.986 5.178-5.93 0-1.404-.51-2.698-1.36-3.725C67.765 47.643 70 45.185 70 42.24zM2.545 67.586V26.552h15.273v41.034H2.545zm61.091-21.724h-14c-.702 0-1.272.54-1.272 1.207s.57 1.207 1.272 1.207h10.182c2.105 0 3.818 1.624 3.818 3.62 0 1.997-1.713 3.621-3.818 3.621H47.09c-.702 0-1.272.54-1.272 1.207 0 .668.57 1.207 1.273 1.207H56c2.105 0 3.818 1.625 3.818 3.62 0 1.997-1.713 3.621-3.818 3.621H20.364V28.966l1.233-.002c.123.023 3.08.06 5.959-2.587 3.673-3.375 5.535-9.407 5.535-17.929 0-2.253.375-6.034 2.894-6.034h.304c2.84 0 5.865 3.777 6.347 6.868.264 1.68 1.031 7.555-.118 12.648l-1.584 7.035h21.43c2.105 0 3.818 1.625 3.818 3.621s-1.713 3.62-3.818 3.62H49.636c-.702 0-1.272.54-1.272 1.208 0 .667.57 1.207 1.272 1.207h8.91c1.123 0 3.595.048 4.904.233 3.324.467 4.004 1.692 4.004 3.387 0 1.997-1.712 3.621-3.818 3.621z" fill="#fff"/></svg>
